outputs/icons/device/night_round.svg

<svg xmlns="http://www.w3.org/2000/svg" width="1200" height="1200" fill="none"><g clip-path="url(#a)"><path fill="#000" d="M578.5 114.992c119-29.5 234-13.5 331.5 32 17.5 8 20.5 32 5 43-130 89.999-215 240-215 409.998 0 170 85 320 215 410 16 11 13 35-4.5 43-64 30-135.5 47-210.5 47-302.501 0-542.501-269-493.501-580C236.998 323.991 385.998 161.992 578.5 114.992"/></g><defs><clipPath id="a"><path fill="#fff" d="M0 0h1200v1200H0z"/></clipPath></defs></svg>

<svg width="1200" height="1200" viewBox="0 0 1200 1200" fill="none" xmlns="http://www.w3.org/2000/svg"><g clip-path="url(#clip0_231_4445)"><path d="M578.5 114.992C697.5 85.492 812.5 101.492 910 146.992C927.5 154.992 930.5 178.992 915 189.992C785 279.991 700 429.992 700 599.99C700 769.99 785 919.99 915 1009.99C931 1020.99 928 1044.99 910.5 1052.99C846.5 1082.99 775 1099.99 700 1099.99C397.499 1099.99 157.499 830.99 206.499 519.99C236.998 323.991 385.998 161.992 578.5 114.992Z" fill="black"/></g><defs><clipPath id="clip0_231_4445"><path width="24" fill="white" d="M0 0H1200V1200H0V0z"/></clipPath></defs></svg>
